X: 42363
T: Welcome To Scalpay
R: waltz
M: 3/4
K: Amajor
E2|A3 A A2|A2 B2 c2|B2 A2 F2|E2 C2 E2|A3 A A2|A2 c2 e2|f6|e4 e2|f2 e2 c2|
B2 A2 B2|c2 A2 F2|E2 C2 D2|E3 F E2|e2 d2 c2|B6|A4:|

